src/svg/thumbs-down.svg

<svg height="1000" width="1000.0" xmlns="http://www.w3.org/2000/svg">
    <path d="m0 109.4c0-25.9 21-46.9 46.9-46.9h156.2c25.9 0 46.9 21 46.9 46.9v468.7c0 25.9-21 46.9-46.9 46.9h-156.2c-25.9 0-46.9-21-46.9-46.9v-468.7z m78.1 390.6c0 25.9 21 46.9 46.9 46.9s46.9-21 46.9-46.9-21-46.9-46.9-46.9-46.9 21-46.9 46.9z m531.3 500c-39.4 0-57.6-76.7-66.3-112.9-10.2-42.3-20.7-86.1-49.6-115-63.4-63.5-96.7-144.5-174-220.9-4.3-4.3-7-10.2-7-16.7v-417.5c0-12.8 10.2-23.2 23-23.4 30.9-0.6 71.7-17.8 102.8-31.6 62.1-27.6 139.3-62 233.6-62h5.5c83.6 0 182.4 0.8 222.2 58.1 16.4 23.5 20.4 52.8 12 87.2 31.9 33.3 49 95.4 32 146 34.3 45.7 37.4 109.6 18.2 155.2l0.2 0.2c23.3 23.3 38.2 61 38 96.1-0.3 59.3-51.1 113.5-116.3 113.5h-198.7c14.3 55.3 65 101.8 65 184.6 0 143.5-93.8 159.1-140.6 159.1z" />
  </svg>

<svg height="1000" width="1000" xmlns="http://www.w3.org/2000/svg"><path d="M0 109.4v468.7C0 604 21 625 46.9 625h156.2C229 625 250 604 250 578.1V109.4C250 83.5 229 62.5 203.1 62.5H46.9C21 62.5 0 83.5 0 109.4zM78.1 500c0 -25.9 21 -46.9 46.9 -46.9s46.9 21 46.9 46.9 -21 46.9 -46.9 46.9S78.1 525.9 78.1 500zm531.3 500c-39.4 0 -57.6 -76.7 -66.3 -112.9C532.9 844.8 522.4 801 493.5 772.1 430.1 708.6 396.8 627.6 319.5 551.2a23.4 -23.4 0 0 0 -7 -16.7V117c0 -12.8 10.2 -23.2 23 -23.4C366.4 93 407.2 75.8 438.3 62 500.4 34.4 577.6 0 671.9 0h5.5C761 0 859.8 .8 899.6 58.1c16.4 23.5 20.4 52.8 12 87.2 31.9 33.3 49 95.4 32 146 34.3 45.7 37.4 109.6 18.2 155.2l.2 .2c23.3 23.3 38.2 61 38 96.1 -.3 59.3 -51.1 113.5 -116.3 113.5H685c14.3 55.3 65 101.8 65 184.6C750 984.4 656.3 1000 609.4 1000z"/></svg>
